assets/icons/uiIcons/flag.svg

<svg width="24" height="24" viewBox="0 0 24 24" fill="none" xmlns="http://www.w3.org/2000/svg">
<path d="M21.3701 2.1C21.1808 2.02257 20.9742 1.99749 20.7718 2.0274C20.5695 2.05731 20.3789 2.14111 20.2201 2.27C20.2201 2.27 19.3001 3 16.7201 3C15.3964 2.9331 14.0971 2.61761 12.8901 2.07C11.4361 1.42163 9.8711 1.05839 8.28013 1C4.85013 1 3.54013 2.08 3.28013 2.29C3.0966 2.48034 2.99592 2.73562 3.00013 3V22C2.99988 22.1365 3.02759 22.2717 3.08156 22.3971C3.13552 22.5225 3.2146 22.6355 3.3139 22.7292C3.41321 22.8229 3.53065 22.8952 3.65899 22.9418C3.78733 22.9884 3.92385 23.0082 4.06013 23C4.19559 23.0068 4.33103 22.9859 4.45818 22.9387C4.58534 22.8915 4.70156 22.8189 4.79978 22.7254C4.898 22.6318 4.97617 22.5193 5.02952 22.3946C5.08287 22.2699 5.1103 22.1356 5.11013 22V15.54C6.1161 15.1357 7.19702 14.9515 8.28013 15C9.60384 15.0669 10.9031 15.3824 12.1101 15.93C13.5642 16.5784 15.1291 16.9416 16.7201 17C20.1501 17 21.4601 15.92 21.7201 15.71C21.9037 15.5197 22.0043 15.2644 22.0001 15V3C21.9944 2.80487 21.9317 2.61567 21.8198 2.45574C21.7078 2.29581 21.5515 2.17215 21.3701 2.1ZM19.8901 14.46C18.8853 14.8683 17.8035 15.0526 16.7201 15C15.3964 14.9331 14.0971 14.6176 12.8901 14.07C11.4345 13.4263 9.87045 13.0632 8.28013 13C7.21039 12.9806 6.14326 13.1119 5.11013 13.39V3.54C6.11497 3.13169 7.19677 2.94741 8.28013 3C9.60384 3.0669 10.9031 3.38239 12.1101 3.93C13.5642 4.57837 15.1291 4.94161 16.7201 5C17.7899 5.0194 18.857 4.88811 19.8901 4.61V14.46Z" fill="#000"/>
</svg>

<svg xmlns="http://www.w3.org/2000/svg" viewBox="0 0 24 24"><path d="M21.37,2.1a1.14,1.14,0,0,0-1.15.17S19.3,3,16.72,3a10.56,10.56,0,0,1-3.83-.93A12.44,12.44,0,0,0,8.28,1c-3.43,0-4.74,1.08-5,1.29A1,1,0,0,0,3,3V22a1,1,0,0,0,1.06,1,1,1,0,0,0,1.05-1V15.54A7.59,7.59,0,0,1,8.28,15a10.56,10.56,0,0,1,3.83.93A12.44,12.44,0,0,0,16.72,17c3.43,0,4.74-1.08,5-1.29A1,1,0,0,0,22,15V3A1,1,0,0,0,21.37,2.1ZM19.89,14.46a7.46,7.46,0,0,1-3.17.54,10.56,10.56,0,0,1-3.83-.93A12.64,12.64,0,0,0,8.28,13a11.4,11.4,0,0,0-3.17.39V3.54A7.46,7.46,0,0,1,8.28,3a10.56,10.56,0,0,1,3.83.93A12.44,12.44,0,0,0,16.72,5a11.4,11.4,0,0,0,3.17-.39Z" fill="#000"/></svg>
